svg_sources/step-forward.svg

<?xml version="1.0" encoding="UTF-8" standalone="no"?>

<svg
   xmlns="http://www.w3.org/2000/svg"
   version="1.1"
   width="32"
   height="32"
   viewBox="0 0 32 32">
  <path
     d="m 18,8 14,0 0,6.5 -14,0 z m 0,9.5 14,0 0,6.5 -14,0 z"
     fill="#000000" />
  <path
     style="font-size:medium;font-style:normal;font-variant:normal;font-weight:normal;font-stretch:normal;text-indent:0;text-align:start;text-decoration:none;line-height:normal;letter-spacing:normal;word-spacing:normal;text-transform:none;direction:ltr;block-progression:tb;writing-mode:lr-tb;text-anchor:start;baseline-shift:baseline;color:#000000;fill:#000000;fill-opacity:1;stroke:none;stroke-width:2;marker:none;visibility:visible;display:inline;overflow:visible;enable-background:accumulate;font-family:Sans"
     d="M 3 10 L 3 11 L 3 20 L 3 21 L 4 21 L 10.84375 21 L 10.84375 22 L 14.3125 20 L 10.84375 18 L 10.84375 19 L 5 19 L 5 12 L 12 12 L 12 10 L 4 10 L 3 10 z " />
</svg>

<?xml version="1.0" encoding="UTF-8" standalone="no"?>

<svg
   xmlns="http://www.w3.org/2000/svg"
   version="1.1"
   width="32"
   height="32"
   viewBox="0 0 32 32">
  <path
     d="m 18,8 14,0 0,6.5 -14,0 z m 0,9.5 14,0 0,6.5 -14,0 z"
     fill="#000000" />
  <path
     style="font-size:medium;font-style:normal;font-variant:normal;font-weight:normal;font-stretch:normal;text-indent:0;text-align:start;text-decoration:none;line-height:normal;letter-spacing:normal;word-spacing:normal;text-transform:none;direction:ltr;block-progression:tb;writing-mode:lr-tb;text-anchor:start;baseline-shift:baseline;color:#000000;fill:#000000;fill-opacity:1;stroke:none;stroke-width:2;marker:none;visibility:visible;display:inline;overflow:visible;enable-background:accumulate;font-family:Sans"
     d="m 3,10 0,1 0,9 0,1 1,0 8,0 0,-2 -7,0 0,-7 7,0 0,-2 -8,0 -1,0 z" />
  <path
     style="fill-rule:evenodd;stroke:none;stroke-width:0.40000000000000002pt;fill:#000000;fill-opacity:1"
     d="m 14.308,20 -3.46,2 0,-4 3.46,2 z" />
</svg>
